X: 10693
T: 6. THE COUNTESS OF SUTHERLAND'S REEL
C: By Gen. Jenkins
R: reel
N: #6 of Six Strathspeys and Reels arranged by W.B. Laybourn
B: K\"ohler's Violin Repository, v.1, 1885 p.69 #3
F: http://www.archive.org/details/klersviolinrepos01edin
Z: 2012 John Chambers <jc:trillian.mit.edu>
M: C|
L: 1/8
K: Bb
ud |\
B2(FB) GBFB | EBDB C(ccd) | B2(FB) G(gfe) | dfce dBB :|
ua |\
bfdf egce | dfBd cFFa | bfdf egce | dfce dBB |]
a |\
bfdf egce | dfBd cFFf | (gf)ga (bg)fe | dfce dB"_Fine."B |]

%%sep 2 1 500

